X:1
T:Banish Misfortune
M:6/8
L:1/8
R:Double Jig
K:DMix
de|: "D"fed "C"cAG| "D"A2d "C"cAG| "D"F2 D DED|FEF GFG|
"D"A3 "C"cAG| "D"AGA "C"cde| "D"fed "C"cAG| "D"Ad^c d2 e :|
|: "D"f2 d d^cd| f2 g agf| "C"e2 c cBc| e2 f gfe|
"D"f2 g agf| "C"e2 f gfe| "F"fed "C"cAG| "D"Ad^c d2 e :|
|: "Dm"ò g "C"e2 f| "Dm"d2e "C"c2 d| "D"A2B/A/ GAG| FGF AFD|
"C"c2 c cAG| AGA cde| "D"fed "C"cAG| "D"Adc d3 :|
